svgs/sharp-light/shop-lock.svg

<svg xmlns="http://www.w3.org/2000/svg" viewBox="0 0 640 512"><!--! Font Awesome Pro 6.6.0 by @fontawesome - https://fontawesome.com License - https://fontawesome.com/license (Commercial License) Copyright 2024 Fonticons, Inc. --><path d="M449.6 192c-9.4 9.2-17.1 20-22.8 32L96 224l0 128 256 0 0-80 0-16 32 0 0 16 0 15.7s0 0 0 0L384 512l-16 0L80 512l-16 0 0-16 0-272-32 0L0 224l0-32 0-16L96 0 544 0l96 176 0 16 0 32-10.8 0c-5.7-12-13.5-22.8-22.8-32l1.6 0 0-7.8L525 32 115 32 32 184.2l0 7.8 32 0 32 0 353.6 0zM96 480l256 0 0-96L96 384l0 96zM528 224c-26.5 0-48 21.5-48 48l0 48 96 0 0-48c0-26.5-21.5-48-48-48zm-80 48c0-44.2 35.8-80 80-80s80 35.8 80 80l0 48 32 0 0 32 0 128 0 32-32 0-160 0-32 0 0-32 0-128 0-32 32 0 0-48zm0 80l0 128 160 0 0-128-160 0z"/></svg>

<svg xmlns="http://www.w3.org/2000/svg" viewBox="0 0 640 512"><!--! Font Awesome Pro 6.4.0 by @fontawesome - https://fontawesome.com License - https://fontawesome.com/license (Commercial License) Copyright 2023 Fonticons, Inc. --><path d="M449.6 192c-9.4 9.2-17.1 20-22.8 32H96V352H352V272 256h32v16 15.7h0L384 512H368 80 64V496 224H32 0V192 176L96 0H544l96 176v16 32H629.2c-5.7-12-13.5-22.8-22.8-32H608v-7.8L525 32H115L32 184.2V192H64 96 449.6zM96 480H352V384H96v96zM528 224c-26.5 0-48 21.5-48 48v48h96V272c0-26.5-21.5-48-48-48zm-80 48c0-44.2 35.8-80 80-80s80 35.8 80 80v48h32v32V480v32H608 448 416V480 352 320h32V272zm0 80V480H608V352H448z"/></svg>
